X:1561
T:"Planxty Davis"                1561
C:after Mr. Cronin
B:O'Neill's Music Of Ireland (The 1850) Lyon & Healy, Chicago, 1903 edition
Z:FROM O'NEILL'S TO NOTEWORTHY, FROM NOTEWORTHY TO ABC, MIDI AND .TXT BY VINCE
BRENNAN July 2003 (HTTP://WWW.SOSYOURMOM.COM)
Q:1/4=90
I:abc2nwc
M:2/4
L:1/16
K:D
"_vb"(DF)|A2AB A2FG|AFAB A3B|AGFE DEFG|A2AB A2dc|
B2Bc B2Ac|BABc B2dB|AGFE DEFG|B2Bc A2b2|
bagb ageg|fedf e2de|fedB BAdF|(FA)AB A2dc|
B2AB d2cd|e2de f2ed|BABc d2F2|E4D2||
(fg)|a2ab a2fg|agab a2fg|agfe defg|a2ab a2fa|
b2bc' b2ga|babc' b2c'b|agfe defa|b2bc' b2fa|
bafb afeg|fedf e2de|fedB BAdF|(FA)AB A2dc|
B2AB d2cd|e2de f2ed|BABc d2F2|E4D2 |]
